X: 14091
T: Freudian, The
R: slip jig
M: 9/8
K: Dminor
|:Adc AGB Ade|~f3 efe d2 c|Adc AGB AFD|~E3 C2 D EFG:|
|:AFD DEF EDC|AFD DEF ~E3|AFD DEF EDC|~E3 C2 D EFG:|
|:AFA cde fcB|Ace fcA BAG|FAc Bce f2 g|aba gfe d2 c:|

